client/public/images/banner/white-shape.svg

<svg fill="none" height="760" viewBox="0 0 608 760" width="608" xmlns="http://www.w3.org/2000/svg"><path d="m207.232-166.764c141.718-163.633 444.225-298.991 624.579-127.553 114.095 108.323 125.085 295.040228 25.764 418.012l-1.899 2.185c-153.805 198.546-214.237 449.528-184.656 688.846 22.425 179.59 95.264 352.934 217.353 492.684-213.873 17.44-433.687-54.19-607.481-219.28-225.8705-213.88-326.8678-552.513-259.4594-868.62 30.4969-145.373 94.8604-281.8643 185.7994-386.274z" fill="#ecf2ff" opacity=".1"/></svg>

<svg width="608" height="760" viewBox="0 0 608 760" fill="none" xmlns="http://www.w3.org/2000/svg">
<path opacity="0.1" d="M207.232 -166.764C348.95 -330.397 651.457 -465.755 831.811 -294.317C945.906 -185.994 956.896 0.723228 857.575 123.695L855.676 125.88C701.871 324.426 641.439 575.408 671.02 814.726C693.445 994.316 766.284 1167.66 888.373 1307.41C674.5 1324.85 454.686 1253.22 280.892 1088.13C55.0215 874.25 -45.9758 535.617 21.4326 219.51C51.9295 74.137 116.293 -62.3543 207.232 -166.764Z" fill="#ECF2FF"/>
</svg>
